svg/map/directions_fill.svg

<?xml version="1.0" encoding="UTF-8"?>
<svg width="24px" height="24px" viewBox="0 0 24 24" version="1.1" xmlns="http://www.w3.org/2000/svg" xmlns:xlink="http://www.w3.org/1999/xlink">
    <title>directions_fill</title>
    <g id="页面-1" stroke="none" stroke-width="1" fill="none" fill-rule="evenodd">
        <g id="Map" transform="translate(-720.000000, -48.000000)" fill-rule="nonzero">
            <g id="directions_fill" transform="translate(720.000000, 48.000000)">
                 <path d="M24,0 L24,24 L0,24 L0,0 L24,0 Z M12.5934901,23.257841 L12.5819402,23.2595131 L12.5108777,23.2950439 L12.4918791,23.2987469 L12.4918791,23.2987469 L12.4767152,23.2950439 L12.4056548,23.2595131 C12.3958229,23.2563662 12.3870493,23.2590235 12.3821421,23.2649074 L12.3780323,23.275831 L12.360941,23.7031097 L12.3658947,23.7234994 L12.3769048,23.7357139 L12.4804777,23.8096931 L12.4953491,23.8136134 L12.4953491,23.8136134 L12.5071152,23.8096931 L12.6106902,23.7357139 L12.6232938,23.7196733 L12.6232938,23.7196733 L12.6266527,23.7031097 L12.609561,23.275831 C12.6075724,23.2657013 12.6010112,23.2592993 12.5934901,23.257841 L12.5934901,23.257841 Z M12.8583906,23.1452862 L12.8445485,23.1473072 L12.6598443,23.2396597 L12.6498822,23.2499052 L12.6498822,23.2499052 L12.6471943,23.2611114 L12.6650943,23.6906389 L12.6699349,23.7034178 L12.6699349,23.7034178 L12.678386,23.7104931 L12.8793402,23.8032389 C12.8914285,23.8068999 12.9022333,23.8029875 12.9078286,23.7952264 L12.9118235,23.7811639 L12.8776777,23.1665331 C12.8752882,23.1545897 12.8674102,23.1470016 12.8583906,23.1452862 L12.8583906,23.1452862 Z M12.1430473,23.1473072 C12.1332178,23.1423925 12.1221763,23.1452606 12.1156365,23.1525954 L12.1099173,23.1665331 L12.0757714,23.7811639 C12.0751323,23.7926639 12.0828099,23.8018602 12.0926481,23.8045676 L12.108256,23.8032389 L12.3092106,23.7104931 L12.3186497,23.7024347 L12.3186497,23.7024347 L12.3225043,23.6906389 L12.340401,23.2611114 L12.337245,23.2485176 L12.337245,23.2485176 L12.3277531,23.2396597 L12.1430473,23.1473072 Z" id="MingCute" fill-rule="nonzero"></path>
                <path d="M13,3 C13,2.44772 12.5523,2 12,2 C11.4477,2 11,2.44772 11,3 L11,4 L10,4 C8.89543,4 8,4.89543 8,6 L8,8 C8,9.10457 8.89543,10 10,10 L11,10 L11,11 L7.41421,11 C6.88378,11 6.37507,11.2107 6,11.5858 L4.29289,13.2929 C4.10536,13.4804 4,13.7348 4,14 C4,14.2652 4.10536,14.5196 4.29289,14.7071 L6,16.4142 C6.37507,16.7893 6.88378,17 7.41421,17 L11,17 L11,20 L9,20 C8.44772,20 8,20.4477 8,21 C8,21.5523 8.44772,22 9,22 L15,22 C15.5523,22 16,21.5523 16,21 C16,20.4477 15.5523,20 15,20 L13,20 L13,17 L14,17 C15.1046,17 16,16.1046 16,15 L16,13 C16,11.8954 15.1046,11 14,11 L13,11 L13,10 L16.5858,10 C17.1162,10 17.6249,9.78929 18,9.41421 L19.7071,7.70711 C19.8946,7.51957 20,7.26522 20,7 C20,6.73478 19.8946,6.48043 19.7071,6.29289 L18,4.58579 C17.6249,4.21071 17.1162,4 16.5858,4 L13,4 L13,3 Z" id="路径" fill="#09244B"></path>
            </g>
        </g>
    </g>
</svg>

<svg xmlns="http://www.w3.org/2000/svg" width="24" height="24"><g fill="none" fill-rule="nonzero"><path d="M24 0v24H0V0h24ZM12.593 23.258l-.011.002-.071.035-.02.004-.014-.004-.071-.035c-.01-.004-.019-.001-.024.005l-.004.01-.017.428.005.02.01.013.104.074.015.004.012-.004.104-.074.012-.016.004-.017-.017-.427c-.002-.01-.009-.017-.017-.018Zm.265-.113-.013.002-.185.093-.01.01-.003.011.018.43.005.012.008.007.201.093c.012.004.023 0 .029-.008l.004-.014-.034-.614c-.003-.012-.01-.02-.02-.022Zm-.715.002a.023.023 0 0 0-.027.006l-.006.014-.034.614c0 .012.007.02.017.024l.015-.002.201-.093.01-.008.004-.011.017-.43-.003-.012-.01-.01-.184-.092Z"/><path fill="#09244B" d="M13 3a1 1 0 1 0-2 0v1h-1a2 2 0 0 0-2 2v2a2 2 0 0 0 2 2h1v1H7.414A2 2 0 0 0 6 11.586l-1.707 1.707a1 1 0 0 0 0 1.414L6 16.414A2 2 0 0 0 7.414 17H11v3H9a1 1 0 1 0 0 2h6a1 1 0 1 0 0-2h-2v-3h1a2 2 0 0 0 2-2v-2a2 2 0 0 0-2-2h-1v-1h3.586A2 2 0 0 0 18 9.414l1.707-1.707a1 1 0 0 0 0-1.414L18 4.586A2 2 0 0 0 16.586 4H13V3Z"/></g></svg>
